icons/ionicons/sharp/hardware-chip-sharp.svg

<svg xmlns="http://www.w3.org/2000/svg" viewBox="0 0 512 512" width="20" height="20"><path d="M160 160h192v192H160z"/><path d="M480 198v-44h-32V88a24 24 0 00-24-24h-66V32h-44v32h-36V32h-44v32h-36V32h-44v32H88a24 24 0 00-24 24v66H32v44h32v36H32v44h32v36H32v44h32v66a24 24 0 0024 24h66v32h44v-32h36v32h44v-32h36v32h44v-32h66a24 24 0 0024-24v-66h32v-44h-32v-36h32v-44h-32v-36zm-352-70h256v256H128z"/></svg>

<svg xmlns="http://www.w3.org/2000/svg" width="512" height="512" viewBox="0 0 512 512"><title>ionicons-v5-l</title><rect x="160" y="160" width="192" height="192"/><path d="M480,198V154H448V88a24,24,0,0,0-24-24H358V32H314V64H278V32H234V64H198V32H154V64H88A24,24,0,0,0,64,88v66H32v44H64v36H32v44H64v36H32v44H64v66a24,24,0,0,0,24,24h66v32h44V448h36v32h44V448h36v32h44V448h66a24,24,0,0,0,24-24V358h32V314H448V278h32V234H448V198ZM128,128H384V384H128Z"/></svg>
